; generated by PrusaSlicer 2.1.0-rc+ on 2019-09-08 at 19:59:33

; 

; external perimeters extrusion width = 0.65mm
; perimeters extrusion width = 0.65mm
; infill extrusion width = 0.70mm
; solid infill extrusion width = 0.70mm
; top infill extrusion width = 0.60mm
; first layer extrusion width = 0.65mm

; external perimeters extrusion width = 0.65mm
; perimeters extrusion width = 0.65mm
; infill extrusion width = 0.70mm
; solid infill extrusion width = 0.70mm
; top infill extrusion width = 0.60mm
; first layer extrusion width = 0.65mm

M73 P0 R18
M73 Q0 S18
M201 X1000 Y1000 Z1000 E5000 ; sets maximum accelerations, mm/sec^2
M203 X200 Y200 Z12 E120 ; sets maximum feedrates, mm/sec
M204 P1250 R1250 T1250 ; sets acceleration (P, T) and retract acceleration (R), mm/sec^2
M205 X8.00 Y8.00 Z0.40 E1.50 ; sets the jerk limits, mm/sec
M205 S0 T0 ; sets the minimum extruding and travel feed rate, mm/sec
M107
M115 U3.7.1 ; tell printer latest fw version
G90 ; use absolute coordinates
M83 ; extruder relative mode
M104 S215 ; set extruder temp
M140 S60 ; set bed temp
M190 S60 ; wait for bed temp
M109 S215 ; wait for extruder temp
G28 W ; home all without mesh bed level
G80 ; mesh bed leveling
;@nosize ; tell repetier-server to ignore movements outside the print area
G1 Y-3.0 F1000.0 ; go outside print area
G92 E0.0
G1 X60.0 E9.0 F1000.0 ; intro line
M73 Q0 S18
M73 P0 R17
G1 X100.0 E12.5 F1000.0 ; intro line
G92 E0.0
;@size ; tell repetier-server to NOT ignore movements outside the print area
M221 S95
G21 ; set units to millimeters
G90 ; use absolute coordinates
M83 ; use relative distances for extrusion
M900 K18 ; Filament gcode
;BEFORE_LAYER_CHANGE
G92 E0.0
;0.2


G1 E-0.80000 F2100.00000
G1 Z0.600 F10800.000
;AFTER_LAYER_CHANGE
;0.2
G1 X115.840 Y111.666
G1 Z0.200
G1 E0.80000 F2100.00000
M204 S1000
G1 F1200
G1 X116.832 Y110.771 E0.06750
G1 X117.771 Y110.076 E0.05894
G1 X118.917 Y109.388 E0.06750
G1 X120.129 Y108.822 E0.06750
G1 X121.229 Y108.432 E0.05893
G1 X122.527 Y108.110 E0.06750
G1 X123.851 Y107.923 E0.06750
G1 X125.002 Y107.871 E0.05818
G1 X126.334 Y107.940 E0.06731
G1 X127.489 Y108.113 E0.05893
G1 X128.786 Y108.437 E0.06750
G1 X130.043 Y108.893 E0.06750
G1 X131.097 Y109.396 E0.05893
G1 X132.242 Y110.085 E0.06750
G1 X133.167 Y110.771 E0.05812
G1 X134.159 Y111.664 E0.06736
G1 X135.054 Y112.658 E0.06750
G1 X135.740 Y113.583 E0.05818
G1 X136.428 Y114.726 E0.06731
G1 X136.932 Y115.782 E0.05907
G1 X137.387 Y117.036 E0.06736
G1 X137.712 Y118.334 E0.06750
G1 X137.884 Y119.488 E0.05893
G1 X137.954 Y120.824 E0.06750
G1 X137.885 Y122.159 E0.06750
G1 X137.715 Y123.299 E0.05818
G1 X137.392 Y124.597 E0.06750
G1 X137.003 Y125.696 E0.05888
G1 X136.438 Y126.905 E0.06736
G1 X135.750 Y128.052 E0.06750
G1 X135.054 Y128.992 E0.05907
G1 X134.161 Y129.984 E0.06736
G1 X133.167 Y130.879 E0.06750
G1 X132.242 Y131.565 E0.05818
G1 X131.099 Y132.253 E0.06731
G1 X130.043 Y132.757 E0.05907
G1 X128.789 Y133.212 E0.06736
G1 X127.491 Y133.537 E0.06750
G1 X126.337 Y133.709 E0.05893
G1 X125.001 Y133.779 E0.06750
G1 X123.666 Y133.710 E0.06750
G1 X122.526 Y133.540 E0.05818
G1 X121.228 Y133.217 E0.06750
G1 X120.129 Y132.828 E0.05888
G1 X118.920 Y132.263 E0.06736
G1 X117.773 Y131.575 E0.06750
G1 X116.835 Y130.881 E0.05893
G1 X115.841 Y129.985 E0.06750
G1 X114.946 Y128.992 E0.06750
G1 X114.260 Y128.067 E0.05818
G1 X113.570 Y126.921 E0.06750
G1 X113.068 Y125.868 E0.05888
G1 X112.613 Y124.614 E0.06736
G1 X112.288 Y123.313 E0.06768
G1 X112.116 Y122.162 E0.05875
G1 X112.046 Y120.826 E0.06750
G1 X112.115 Y119.491 E0.06750
G1 X112.285 Y118.351 E0.05818
G1 X112.608 Y117.053 E0.06750
G1 X112.997 Y115.954 E0.05888
G1 X113.562 Y114.745 E0.06736
G1 X114.250 Y113.598 E0.06750
G1 X114.944 Y112.660 E0.05894
G1 X115.779 Y111.733 E0.06295
G1 F8640
G1 X116.832 Y110.771 E-0.32942
G1 X117.771 Y110.076 E-0.26958
G1 X118.369 Y109.718 E-0.16099
G1 E-0.04000 F2100.00000
G1 Z0.800 F10800.000
G1 X118.912 Y114.812
G1 Z0.200
G1 E0.80000 F2100.00000
G1 F1200
G1 X119.623 Y114.164 E0.04857
G1 X120.338 Y113.646 E0.04455
G1 X121.086 Y113.212 E0.04365
G1 X121.794 Y112.889 E0.03931
G1 X122.510 Y112.635 E0.03833
G1 X123.367 Y112.422 E0.04455
G1 X124.254 Y112.297 E0.04523
G1 X125.118 Y112.266 E0.04365
G1 X125.909 Y112.313 E0.03999
G1 X126.767 Y112.449 E0.04383
G1 X127.516 Y112.643 E0.03905
G1 X128.345 Y112.945 E0.04455
G1 X129.150 Y113.338 E0.04523
G1 X129.899 Y113.805 E0.04455
G1 X130.513 Y114.276 E0.03905
G1 X131.158 Y114.879 E0.04455
G1 X131.737 Y115.544 E0.04455
G1 X132.178 Y116.163 E0.03837
G1 X132.564 Y116.818 E0.03837
G1 X132.937 Y117.618 E0.04455
G1 X133.229 Y118.465 E0.04523
G1 X133.430 Y119.339 E0.04523
G1 X133.537 Y120.197 E0.04365
G1 X133.558 Y120.975 E0.03931
G1 X133.512 Y121.733 E0.03833
G1 X133.376 Y122.592 E0.04387
G1 X133.182 Y123.341 E0.03905
G1 X132.880 Y124.170 E0.04455
G1 X132.487 Y124.975 E0.04523
G1 X132.012 Y125.735 E0.04523
G1 X131.469 Y126.431 E0.04455
G1 X130.946 Y126.982 E0.03837
G1 X130.377 Y127.486 E0.03837
G1 X129.662 Y128.004 E0.04455
G1 X128.898 Y128.446 E0.04455
G1 X128.194 Y128.767 E0.03905
G1 X127.360 Y129.054 E0.04455
G1 X126.486 Y129.255 E0.04523
G1 X125.628 Y129.362 E0.04365
G1 X124.850 Y129.383 E0.03931
G1 X124.092 Y129.337 E0.03833
G1 X123.220 Y129.198 E0.04455
G1 X122.355 Y128.966 E0.04523
G1 X121.547 Y128.657 E0.04365
G1 X120.838 Y128.305 E0.03999
G1 X120.090 Y127.837 E0.04451
G1 X119.408 Y127.306 E0.04365
G1 X118.842 Y126.770 E0.03931
G1 X118.339 Y126.202 E0.03833
G1 X117.821 Y125.487 E0.04455
G1 X117.387 Y124.739 E0.04365
G1 X117.058 Y124.018 E0.03999
G1 X116.771 Y123.185 E0.04451
G1 X116.576 Y122.342 E0.04365
G1 X116.471 Y121.557 E0.03999
G1 X116.441 Y120.689 E0.04383
G1 X116.488 Y119.917 E0.03905
G1 X116.624 Y119.058 E0.04387
G1 X116.818 Y118.309 E0.03905
G1 X117.120 Y117.480 E0.04455
G1 X117.507 Y116.687 E0.04455
G1 X117.911 Y116.027 E0.03905
G1 X118.442 Y115.323 E0.04455
G1 X118.849 Y114.876 E0.03048
G1 X118.416 Y114.450 F10800.000
G1 F1200
G1 X118.626 Y114.236 E0.01515
G1 X119.237 Y113.695 E0.04119
G1 X120.007 Y113.136 E0.04803
G1 X120.815 Y112.669 E0.04710
G1 X121.566 Y112.325 E0.04173
G1 X122.328 Y112.056 E0.04075
G1 X123.251 Y111.826 E0.04803
G1 X123.724 Y111.747 E0.02423
G1 X124.201 Y111.692 E0.02423
G1 X125.133 Y111.659 E0.04710
G1 X125.967 Y111.709 E0.04214
G1 X126.898 Y111.856 E0.04759
G1 X127.688 Y112.061 E0.04119
G1 X128.582 Y112.386 E0.04803
G1 X129.019 Y112.585 E0.02423
G1 X129.445 Y112.807 E0.02423
G1 X130.252 Y113.311 E0.04803
G1 X130.899 Y113.808 E0.04119
G1 X131.595 Y114.457 E0.04803
G1 X132.219 Y115.175 E0.04803
G1 X132.688 Y115.832 E0.04078
G1 X133.098 Y116.528 E0.04078
G1 X133.500 Y117.391 E0.04803
G1 X133.668 Y117.840 E0.02423
G1 X133.812 Y118.298 E0.02423
G1 X133.933 Y118.763 E0.02423
G1 X134.028 Y119.233 E0.02423
G1 X134.143 Y120.159 E0.04710
G1 X134.166 Y120.986 E0.04173
G1 X134.116 Y121.791 E0.04075
G1 X133.969 Y122.723 E0.04762
G1 X133.764 Y123.513 E0.04119
G1 X133.439 Y124.407 E0.04803
G1 X133.240 Y124.844 E0.02423
G1 X133.018 Y125.270 E0.02423
G1 X132.775 Y125.683 E0.02423
G1 X132.510 Y126.083 E0.02423
G1 X131.924 Y126.833 E0.04803
G1 X131.368 Y127.419 E0.04078
G1 X130.763 Y127.955 E0.04078
G1 X129.993 Y128.514 E0.04803
G1 X129.169 Y128.990 E0.04803
G1 X128.427 Y129.328 E0.04119
G1 X127.527 Y129.637 E0.04803
G1 X127.062 Y129.758 E0.02423
G1 X126.592 Y129.853 E0.02423
G1 X125.666 Y129.968 E0.04710
G1 X124.839 Y129.991 E0.04173
G1 X124.034 Y129.941 E0.04075
G1 X123.094 Y129.792 E0.04803
G1 X122.627 Y129.680 E0.02423
G1 X122.167 Y129.544 E0.02423
G1 X121.296 Y129.210 E0.04710
G1 X120.548 Y128.839 E0.04214
G1 X119.742 Y128.335 E0.04800
G1 X119.006 Y127.761 E0.04710
G1 X118.405 Y127.193 E0.04173
G1 X117.870 Y126.588 E0.04075
G1 X117.311 Y125.818 E0.04803
G1 X116.844 Y125.010 E0.04710
G1 X116.497 Y124.251 E0.04214
G1 X116.188 Y123.352 E0.04800
G1 X115.977 Y122.443 E0.04710
G1 X115.867 Y121.615 E0.04214
G1 X115.834 Y120.673 E0.04759
G1 X115.884 Y119.859 E0.04119
G1 X116.031 Y118.927 E0.04762
G1 X116.236 Y118.137 E0.04119
G1 X116.561 Y117.243 E0.04803
G1 X116.978 Y116.388 E0.04803
G1 X117.404 Y115.692 E0.04119
G1 X117.977 Y114.932 E0.04803
G1 X118.353 Y114.514 E0.02835
G1 X117.920 Y114.089 F10800.000
G1 F1200
G1 X118.208 Y113.796 E0.02076
G1 X118.851 Y113.227 E0.04333
G1 X119.254 Y112.917 E0.02569
G1 X119.676 Y112.627 E0.02583
G1 X120.113 Y112.360 E0.02584
G1 X120.543 Y112.126 E0.02473
G1 X121.339 Y111.762 E0.04415
G1 X122.145 Y111.476 E0.04318
G1 X122.635 Y111.340 E0.02569
G1 X123.135 Y111.230 E0.02583
G1 X123.640 Y111.145 E0.02583
G1 X124.148 Y111.087 E0.02583
G1 X124.659 Y111.056 E0.02584
G1 X125.149 Y111.051 E0.02473
G1 X126.025 Y111.104 E0.04429
G1 X126.529 Y111.170 E0.02568
G1 X127.030 Y111.263 E0.02569
G1 X127.861 Y111.478 E0.04333
G1 X128.343 Y111.640 E0.02569
G1 X128.819 Y111.827 E0.02583
G1 X129.285 Y112.039 E0.02583
G1 X129.739 Y112.276 E0.02583
G1 X130.180 Y112.535 E0.02583
G1 X130.604 Y112.816 E0.02569
G1 X131.285 Y113.339 E0.04333
G1 X131.666 Y113.676 E0.02569
G1 X132.031 Y114.035 E0.02583
G1 X132.377 Y114.412 E0.02583
G1 X132.701 Y114.805 E0.02569
G1 X133.198 Y115.501 E0.04319
G1 X133.632 Y116.239 E0.04319
G1 X133.859 Y116.694 E0.02569
G1 X134.063 Y117.163 E0.02583
G1 X134.242 Y117.643 E0.02583
G1 X134.396 Y118.131 E0.02583
G1 X134.524 Y118.626 E0.02583
G1 X134.626 Y119.128 E0.02583
G1 X134.702 Y119.634 E0.02584
G1 X134.749 Y120.121 E0.02473
G1 X134.773 Y120.996 E0.04415
G1 X134.721 Y121.850 E0.04318
G1 X134.655 Y122.354 E0.02569
G1 X134.562 Y122.855 E0.02569
G1 X134.347 Y123.686 E0.04333
G1 X134.185 Y124.168 E0.02569
G1 X133.998 Y124.644 E0.02583
G1 X133.786 Y125.110 E0.02583
G1 X133.549 Y125.564 E0.02583
G1 X133.290 Y126.005 E0.02583
G1 X133.007 Y126.432 E0.02583
G1 X132.703 Y126.843 E0.02583
G1 X132.379 Y127.236 E0.02569
G1 X131.790 Y127.856 E0.04319
G1 X131.149 Y128.423 E0.04319
G1 X130.746 Y128.733 E0.02569
G1 X130.324 Y129.023 E0.02583
G1 X129.887 Y129.290 E0.02583
G1 X129.440 Y129.533 E0.02569
G1 X128.659 Y129.889 E0.04333
G1 X128.182 Y130.067 E0.02569
G1 X127.694 Y130.221 E0.02583
G1 X127.199 Y130.349 E0.02583
G1 X126.697 Y130.451 E0.02583
G1 X126.191 Y130.527 E0.02584
G1 X125.704 Y130.574 E0.02473
G1 X124.829 Y130.598 E0.04415
G1 X123.975 Y130.546 E0.04318
G1 X123.471 Y130.480 E0.02569
G1 X122.968 Y130.386 E0.02583
G1 X122.470 Y130.267 E0.02583
G1 X121.979 Y130.121 E0.02583
G1 X121.497 Y129.951 E0.02584
G1 X121.044 Y129.763 E0.02473
G1 X120.258 Y129.373 E0.04429
G1 X119.820 Y129.115 E0.02568
G1 X119.393 Y128.832 E0.02583
G1 X118.982 Y128.528 E0.02584
G1 X118.604 Y128.216 E0.02473
G1 X117.969 Y127.615 E0.04415
G1 X117.402 Y126.974 E0.04318
G1 X117.092 Y126.571 E0.02569
G1 X116.802 Y126.149 E0.02583
G1 X116.535 Y125.712 E0.02584
G1 X116.301 Y125.282 E0.02473
G1 X115.936 Y124.484 E0.04429
G1 X115.758 Y124.007 E0.02568
G1 X115.604 Y123.519 E0.02583
G1 X115.476 Y123.024 E0.02584
G1 X115.378 Y122.544 E0.02473
G1 X115.262 Y121.674 E0.04429
G1 X115.231 Y121.166 E0.02568
G1 X115.227 Y120.657 E0.02569
G1 X115.279 Y119.800 E0.04333
G1 X115.345 Y119.296 E0.02569
G1 X115.438 Y118.795 E0.02569
G1 X115.653 Y117.964 E0.04333
G1 X115.815 Y117.482 E0.02569
G1 X116.002 Y117.006 E0.02583
G1 X116.214 Y116.540 E0.02583
G1 X116.449 Y116.089 E0.02569
G1 X116.898 Y115.357 E0.04333
G1 X117.193 Y114.942 E0.02569
G1 X117.512 Y114.542 E0.02583
G1 X117.856 Y114.153 E0.02622
G1 X118.320 Y114.182 F10800.000
G1 F8640
G1 X118.208 Y113.796 E-0.11574
G1 X118.851 Y113.227 E-0.19821
G1 X119.254 Y112.917 E-0.11751
G1 X119.676 Y112.627 E-0.11817
G1 X120.113 Y112.360 E-0.11819
G1 X120.463 Y112.169 E-0.09218
G1 E-0.04000 F2100.00000
G1 Z0.800 F10800.000
G1 X117.054 Y123.446
G1 Z0.200
G1 E0.80000 F2100.00000
G1 F1200
G1 X121.921 Y128.313 E0.35640
G1 X122.495 Y128.533 E0.03184
G1 X123.214 Y128.725 E0.03851
G1 X117.107 Y122.619 E0.44714
G1 X117.024 Y122.261 E0.01904
G1 X116.931 Y121.562 E0.03647
G1 X124.260 Y128.891 E0.53664
G1 X124.857 Y128.927 E0.03100
G1 X125.169 Y128.919 E0.01612
G1 X116.900 Y120.650 E0.60551
G1 X116.963 Y119.832 E0.04246
G1 X125.989 Y128.858 E0.66094
G1 X126.407 Y128.806 E0.02183
G1 X126.740 Y128.729 E0.01772
G1 X117.089 Y119.078 E0.70671
G1 X117.275 Y118.384 E0.03723
G1 X127.437 Y128.546 E0.74411
G1 X128.087 Y128.315 E0.03572
G1 X117.511 Y117.738 E0.77449
G1 X117.793 Y117.140 E0.03427
G1 X128.692 Y128.039 E0.79813
G1 X129.250 Y127.717 E0.03338
G1 X118.109 Y116.575 E0.81583
G1 X118.288 Y116.284 E0.01771
G1 X118.464 Y116.050 E0.01517
G1 X129.775 Y127.360 E0.82821
G1 X130.091 Y127.130 E0.02027
G1 X130.268 Y126.973 E0.01225
G1 X118.849 Y115.554 E0.83620
G1 X119.274 Y115.098 E0.03226
G1 X130.727 Y126.551 E0.83867
G1 X131.153 Y126.096 E0.03226
G1 X119.732 Y114.676 E0.83627
G1 X119.909 Y114.520 E0.01220
G1 X120.226 Y114.289 E0.02031
G1 X131.539 Y125.602 E0.82837
G1 X131.639 Y125.474 E0.00842
G1 X131.890 Y125.072 E0.02452
G1 X120.750 Y113.933 E0.81568
G1 X121.309 Y113.611 E0.03339
G1 X132.208 Y124.509 E0.79805
G1 X132.490 Y123.911 E0.03426
G1 X121.914 Y113.335 E0.77444
G1 X122.560 Y113.100 E0.03560
G1 X132.725 Y123.265 E0.74433
G1 X132.911 Y122.571 E0.03723
G1 X123.258 Y112.918 E0.70682
G1 X123.454 Y112.870 E0.01042
G1 X124.012 Y112.791 E0.02919
G1 X133.037 Y121.817 E0.66091
G1 X133.100 Y120.999 E0.04246
G1 X124.833 Y112.732 E0.60537
G1 X125.113 Y112.722 E0.01448
G1 X125.742 Y112.760 E0.03262
G1 X133.064 Y120.082 E0.53617
G1 X132.981 Y119.418 E0.03463
G1 X132.891 Y119.029 E0.02068
G1 X126.788 Y112.925 E0.44695
G1 X127.380 Y113.078 E0.03169
G1 X128.075 Y113.331 E0.03827
G1 X132.945 Y118.202 E0.35666
G1 F8640
G1 X130.618 Y115.875 E-0.76000
G1 E-0.04000 F2100.00000
G1 Z0.800 F10800.000
G1 X132.225 Y116.601
G1 Z0.200
G1 E0.80000 F2100.00000
G1 F1200
G1 X129.221 Y113.597 E0.21999
G1 F8640
G1 X131.548 Y115.924 E-0.76000
G1 E-0.04000 F2100.00000
G1 Z0.800 F10800.000
G1 X117.779 Y125.052
G1 Z0.200
G1 E0.80000 F2100.00000
G1 F1200
G1 X120.783 Y128.056 E0.21999
M106 S255
;BEFORE_LAYER_CHANGE
G92 E0.0
;0.5


G1 F8640
G1 X118.456 Y125.729 E-0.76000
G1 E-0.04000 F2100.00000
G1 Z0.800 F10800.000
;AFTER_LAYER_CHANGE
;0.5
G1 X114.946 Y128.992
G1 Z0.500
G1 E0.80000 F2100.00000
G1 F1947
G1 X114.260 Y128.067 E0.08418
G1 X113.570 Y126.921 E0.09767
G1 X113.068 Y125.868 E0.08520
G1 X112.613 Y124.614 E0.09747
G1 X112.288 Y123.313 E0.09794
G1 X112.116 Y122.162 E0.08500
G1 X112.046 Y120.826 E0.09767
G1 X112.115 Y119.491 E0.09767
G1 X112.285 Y118.351 E0.08418
G1 X112.608 Y117.053 E0.09767
G1 X112.997 Y115.954 E0.08520
G1 X113.562 Y114.745 E0.09747
G1 X114.250 Y113.598 E0.09767
G1 X114.944 Y112.660 E0.08528
G1 X115.840 Y111.666 E0.09767
G1 X116.832 Y110.771 E0.09767
G1 X117.771 Y110.076 E0.08528
G1 X118.917 Y109.388 E0.09767
G1 X120.129 Y108.822 E0.09767
G1 X121.229 Y108.432 E0.08528
G1 X122.527 Y108.110 E0.09767
G1 X123.851 Y107.923 E0.09767
G1 X125.002 Y107.871 E0.08418
G1 X126.334 Y107.940 E0.09740
G1 X127.489 Y108.113 E0.08527
G1 X128.786 Y108.437 E0.09767
G1 X130.043 Y108.893 E0.09767
G1 X131.097 Y109.396 E0.08528
G1 X132.242 Y110.085 E0.09767
G1 X133.167 Y110.771 E0.08410
G1 X134.159 Y111.664 E0.09747
G1 X135.054 Y112.658 E0.09767
G1 X135.740 Y113.583 E0.08418
G1 X136.428 Y114.726 E0.09739
G1 X136.932 Y115.782 E0.08547
G1 X137.387 Y117.036 E0.09747
G1 X137.712 Y118.334 E0.09767
G1 X137.884 Y119.488 E0.08528
G1 X137.954 Y120.824 E0.09767
G1 X137.885 Y122.159 E0.09767
G1 X137.715 Y123.299 E0.08418
G1 X137.392 Y124.597 E0.09767
G1 X137.003 Y125.696 E0.08520
G1 X136.438 Y126.905 E0.09747
G1 X135.750 Y128.052 E0.09767
G1 X135.054 Y128.992 E0.08547
G1 X134.161 Y129.984 E0.09747
G1 X133.167 Y130.879 E0.09767
G1 X132.242 Y131.565 E0.08418
G1 X131.099 Y132.253 E0.09739
G1 X130.043 Y132.757 E0.08547
G1 X128.789 Y133.212 E0.09747
G1 X127.491 Y133.537 E0.09766
G1 X126.337 Y133.709 E0.08527
G1 X125.001 Y133.779 E0.09767
G1 X123.666 Y133.710 E0.09766
G1 X122.526 Y133.540 E0.08418
G1 X121.228 Y133.217 E0.09767
G1 X120.129 Y132.828 E0.08520
G1 X118.920 Y132.263 E0.09747
G1 X117.773 Y131.575 E0.09767
G1 X116.835 Y130.881 E0.08527
G1 X115.841 Y129.985 E0.09767
G1 X115.006 Y129.059 E0.09109
G1 F8640
G1 X114.260 Y128.067 E-0.28680
